X: 35848
T: Sam Cormier's
R: reel
M: 4/4
K: Dmajor
D2 A,D B,D A,B,|DFAF GFEF|DF ~F2 Agfe|dBBA BAFE|
D2 A,D B,D A,B,|DFAF GFEF|DFBF AF ~F2|1 EDCE D .G/.F/E:|2 EDCE D2 .g/.f/e||
fdAG FAdf|eA ~A2 eAeg|fedB BAFA|.B/.c/d AF FEEg|
fdAG FAdf|eA ~A2 eAef|gfec dedB|1 ABde fddg:|2 ABde fdAF||

